report_00007_2020-12-11T15:55:29.892Z/render-blocking-resources/comparison/line/6_vs_7.svg

<svg width="640" height="500" xmlns="http://www.w3.org/2000/svg" xmlns:xlink="http://www.w3.org/1999/xlink"><path fill="#fff" d="M0 0h640v500H0z"/><defs><path id="d" stroke-width=".222" stroke="currentColor" d="M-1-1h2v2h-2z"/><path id="b" stroke-width=".222" stroke="currentColor" d="M0-1.33l-1.33 2h2.66z"/><path id="f" stroke-width=".222" stroke="currentColor" d="M0 1.33L1.265.411.782-1.067l-1.564-.009-.483 1.487z"/><use xlink:href="#b" id="c" stroke="currentColor" transform="rotate(180)"/><use xlink:href="#d" id="e" stroke="currentColor" transform="rotate(45)"/><circle id="a" stroke-width=".222" stroke="currentColor" cx="0" cy="0" r="1"/></defs><g fill="none" color="#000" stroke="currentColor"><path stroke="#000" d="M53.9 424.3h9m552.1 0h-9"/><text transform="translate(45.6 428.2)" stroke="none" fill="#000" font-family="Arial" font-size="12" text-anchor="end"><tspan>0</tspan></text></g><g fill="none" color="#000" stroke="currentColor"><path stroke="#000" d="M53.9 382.2h9m552.1 0h-9"/><text transform="translate(45.6 386.1)" stroke="none" fill="#000" font-family="Arial" font-size="12" text-anchor="end"><tspan>50</tspan></text></g><g fill="none" color="#000" stroke="currentColor"><path stroke="#000" d="M53.9 340.1h9m552.1 0h-9"/><text transform="translate(45.6 344)" stroke="none" fill="#000" font-family="Arial" font-size="12" text-anchor="end"><tspan>100</tspan></text></g><g fill="none" color="#000" stroke="currentColor"><path stroke="#000" d="M53.9 298h9m552.1 0h-9"/><text transform="translate(45.6 301.9)" stroke="none" fill="#000" font-family="Arial" font-size="12" text-anchor="end"><tspan>150</tspan></text></g><g fill="none" color="#000" stroke="currentColor"><path stroke="#000" d="M53.9 255.9h9m552.1 0h-9"/><text transform="translate(45.6 259.8)" stroke="none" fill="#000" font-family="Arial" font-size="12" text-anchor="end"><tspan>200</tspan></text></g><g fill="none" color="#000" stroke="currentColor"><path stroke="#000" d="M53.9 213.8h9m552.1 0h-9"/><text transform="translate(45.6 217.7)" stroke="none" fill="#000" font-family="Arial" font-size="12" text-anchor="end"><tspan>250</tspan></text></g><g fill="none" color="#000" stroke="currentColor"><path stroke="#000" d="M53.9 171.7h9m552.1 0h-9"/><text transform="translate(45.6 175.6)" stroke="none" fill="#000" font-family="Arial" font-size="12" text-anchor="end"><tspan>300</tspan></text></g><g fill="none" color="#000" stroke="currentColor"><path stroke="#000" d="M53.9 129.6h9m552.1 0h-9"/><text transform="translate(45.6 133.5)" stroke="none" fill="#000" font-family="Arial" font-size="12" text-anchor="end"><tspan>350</tspan></text></g><g fill="none" color="#000" stroke="currentColor"><path stroke="#000" d="M53.9 87.5h9m552.1 0h-9"/><text transform="translate(45.6 91.4)" stroke="none" fill="#000" font-family="Arial" font-size="12" text-anchor="end"><tspan>400</tspan></text></g><g fill="none" color="#000" stroke="currentColor"><path stroke="#000" d="M53.9 45.4h9m552.1 0h-9"/><text transform="translate(45.6 49.3)" stroke="none" fill="#000" font-family="Arial" font-size="12" text-anchor="end"><tspan>450</tspan></text></g><g fill="none" color="#000" stroke="currentColor"><path stroke="#000" d="M53.9 428v-9m0-400.9v9"/><text transform="translate(53.9 449.9)" stroke="none" fill="#000" font-family="Arial" font-size="12" text-anchor="middle"><tspan>0</tspan></text></g><g fill="none" color="#000" stroke="currentColor"><path stroke="#000" d="M110.6 428v-9m0-400.9v9"/><text transform="translate(110.6 449.9)" stroke="none" fill="#000" font-family="Arial" font-size="12" text-anchor="middle"><tspan>10</tspan></text></g><g fill="none" color="#000" stroke="currentColor"><path stroke="#000" d="M167.3 428v-9m0-400.9v9"/><text transform="translate(167.3 449.9)" stroke="none" fill="#000" font-family="Arial" font-size="12" text-anchor="middle"><tspan>20</tspan></text></g><g fill="none" color="#000" stroke="currentColor"><path stroke="#000" d="M223.9 428v-9m0-400.9v9"/><text transform="translate(223.9 449.9)" stroke="none" fill="#000" font-family="Arial" font-size="12" text-anchor="middle"><tspan>30</tspan></text></g><g fill="none" color="#000" stroke="currentColor"><path stroke="#000" d="M280.6 428v-9m0-400.9v9"/><text transform="translate(280.6 449.9)" stroke="none" fill="#000" font-family="Arial" font-size="12" text-anchor="middle"><tspan>40</tspan></text></g><g fill="none" color="#000" stroke="currentColor"><path stroke="#000" d="M337.3 428v-9m0-400.9v9"/><text transform="translate(337.3 449.9)" stroke="none" fill="#000" font-family="Arial" font-size="12" text-anchor="middle"><tspan>50</tspan></text></g><g fill="none" color="#000" stroke="currentColor"><path stroke="#000" d="M394 428v-9m0-400.9v9"/><text transform="translate(394 449.9)" stroke="none" fill="#000" font-family="Arial" font-size="12" text-anchor="middle"><tspan>60</tspan></text></g><g fill="none" color="#000" stroke="currentColor"><path stroke="#000" d="M450.6 428v-9m0-400.9v9"/><text transform="translate(450.6 449.9)" stroke="none" fill="#000" font-family="Arial" font-size="12" text-anchor="middle"><tspan>70</tspan></text></g><g fill="none" color="#000" stroke="currentColor"><path stroke="#000" d="M507.3 428v-9m0-400.9v9"/><text transform="translate(507.3 449.9)" stroke="none" fill="#000" font-family="Arial" font-size="12" text-anchor="middle"><tspan>80</tspan></text></g><g fill="none" color="#000" stroke="currentColor"><path stroke="#000" d="M564 428v-9m0-400.9v9"/><text transform="translate(564 449.9)" stroke="none" fill="#000" font-family="Arial" font-size="12" text-anchor="middle"><tspan>90</tspan></text></g><path stroke="#000" d="M53.9 18.1V428H615V18.1H53.9z" fill="none" color="#000"/><text transform="translate(433.7 467.9)" stroke="none" fill="#000" font-family="Arial" font-size="12" text-anchor="end" color="#000"><tspan>pages+cached+noexternal+nofonts</tspan></text><path stroke="#9400D3" d="M442 464h42.2M53.9 419.3l5.7-3.4 5.6.8 5.7 1.7h5.7l5.6-1.7 5.7 1.7 5.7-256 5.6 255.2 5.7-379 5.7 379.8 5.6-.8 5.7.8 5.7-.8 5.6.8 5.7-.8h5.7l5.7-.9 5.6.9 5.7-377.3 5.7 377.3 5.6-2.5h5.7l5.7-254.4 5.6 256.9 5.7.8 5.7-.8 5.6.8 5.7-.8 5.7.8 5.6-379.8 5.7.9 5.7 378.9h5.6l5.7-378.9 5.7-.9 5.6 379h5.7l5.7-.9h5.6l5.7-378.1 5.7 379 5.6-377.3 5.7 377.3 5.7-.9 5.6 2.6 5.7-1.7 5.7-261.9 5.6 262.7 5.7-378.1 5.7-.8 5.7 378.1h5.6l5.7.8L360 41.1l5.6 121.3 5.7 257.7L377 40.3l5.6 377.3 5.7.8 5.7-.8 5.6-.9h5.7L411 38.6l5.6 379.8 5.7-378.1h5.7l5.6 375.6 5.7-378.1 5.7 381.5 5.6-1.7H462l5.6.8 5.7-378.1 5.7 376.4 5.6-376.4 5.7 378.1h11.3l5.7-1.7 5.7 1.7 5.6-.8 5.7.8 5.7-2.5 5.7 1.7 5.6-377.3 5.7 377.3 5.7.8 5.6-378.9 5.7 377.2h17l5.7-258.5 5.6 260.2 5.7-.8h11.3l5.7-.9" fill="none" color="#000"/><text transform="translate(433.7 485.9)" stroke="none" fill="#000" font-family="Arial" font-size="12" text-anchor="end" color="#000"><tspan>pages+cached+noexternal+nosvg</tspan></text><path stroke="#009E73" d="M442 482h42.2M53.9 291.3h5.7l5.6-2.6 5.7 3.4 5.7-1.7 5.6.9 5.7-3.4 5.7.8 5.6 1.7 5.7-1.7 5.7.9 5.6-91L121.9 26l5.7 265.3 5.6-2.6h5.7l5.7 1.7h5.7l5.6 2.5 5.7-260.2 5.7 256 5.6.9 5.7.8 5.7-.8 5.6.8 5.7-.8 5.7-.9 5.6 1.7h5.7l5.7.9 5.6-2.6 5.7.9 5.7-.9 5.6 1.7 5.7-1.7 5.7-260.2 5.6.9 5.7 259.3 5.7.9 5.6-.9h5.7l5.7.9 5.6 2.5 5.7-4.2 5.7.8 5.6.9 5.7 2.5 5.7-2.5 5.6-.9 5.7-.8 5.7-258.5 5.7 259.3 5.6.9 5.7.8 5.7-1.7 5.6 3.4 5.7-1.7 5.7-3.3 5.6 1.6 5.7 1.7 5.7-4.2 5.6 3.4h5.7l5.7.8 5.6.9 5.7-.9h5.7l5.6-263.6 5.7 265.3 5.7-1.7h5.6l5.7.9 5.7-.9 5.6-2.5 5.7 1.7 5.7.8 5.6 3.4 5.7-5.1 5.7-.8 5.6 2.5 5.7-.8 5.7.8 5.6.9 5.7-.9 5.7.9 5.7-1.7 5.6-.9h11.4l5.6 1.7 5.7 2.5 5.7-2.5 5.6-1.7 5.7 2.6 5.7-3.4 5.6 1.7 5.7 1.7 5.7-2.6 5.6 1.7 5.7-1.7" fill="none" color="#000"/><g fill="none" color="#000" stroke="currentColor"><path stroke="#000" d="M53.9 18.1V428H615V18.1H53.9z"/></g></svg>

<?xml version="1.0" encoding="utf-8"  standalone="no"?>
<svg 
 width="640" height="500"
 viewBox="0 0 640 500"
 xmlns="http://www.w3.org/2000/svg"
 xmlns:xlink="http://www.w3.org/1999/xlink"
>

<title>Gnuplot</title>
<desc>Produced by GNUPLOT 5.4 patchlevel 0 </desc>

<g id="gnuplot_canvas">

<rect x="0" y="0" width="640" height="500" fill="#ffffff"/>
<defs>

	<circle id='gpDot' r='0.5' stroke-width='0.5' stroke='currentColor'/>
	<path id='gpPt0' stroke-width='0.222' stroke='currentColor' d='M-1,0 h2 M0,-1 v2'/>
	<path id='gpPt1' stroke-width='0.222' stroke='currentColor' d='M-1,-1 L1,1 M1,-1 L-1,1'/>
	<path id='gpPt2' stroke-width='0.222' stroke='currentColor' d='M-1,0 L1,0 M0,-1 L0,1 M-1,-1 L1,1 M-1,1 L1,-1'/>
	<rect id='gpPt3' stroke-width='0.222' stroke='currentColor' x='-1' y='-1' width='2' height='2'/>
	<rect id='gpPt4' stroke-width='0.222' stroke='currentColor' fill='currentColor' x='-1' y='-1' width='2' height='2'/>
	<circle id='gpPt5' stroke-width='0.222' stroke='currentColor' cx='0' cy='0' r='1'/>
	<use xlink:href='#gpPt5' id='gpPt6' fill='currentColor' stroke='none'/>
	<path id='gpPt7' stroke-width='0.222' stroke='currentColor' d='M0,-1.33 L-1.33,0.67 L1.33,0.67 z'/>
	<use xlink:href='#gpPt7' id='gpPt8' fill='currentColor' stroke='none'/>
	<use xlink:href='#gpPt7' id='gpPt9' stroke='currentColor' transform='rotate(180)'/>
	<use xlink:href='#gpPt9' id='gpPt10' fill='currentColor' stroke='none'/>
	<use xlink:href='#gpPt3' id='gpPt11' stroke='currentColor' transform='rotate(45)'/>
	<use xlink:href='#gpPt11' id='gpPt12' fill='currentColor' stroke='none'/>
	<path id='gpPt13' stroke-width='0.222' stroke='currentColor' d='M0,1.330 L1.265,0.411 L0.782,-1.067 L-0.782,-1.076 L-1.265,0.411 z'/>
	<use xlink:href='#gpPt13' id='gpPt14' fill='currentColor' stroke='none'/>
	<filter id='textbox' filterUnits='objectBoundingBox' x='0' y='0' height='1' width='1'>
	  <feFlood flood-color='#FFFFFF' flood-opacity='1' result='bgnd'/>
	  <feComposite in='SourceGraphic' in2='bgnd' operator='atop'/>
	</filter>
	<filter id='greybox' filterUnits='objectBoundingBox' x='0' y='0' height='1' width='1'>
	  <feFlood flood-color='lightgrey' flood-opacity='1' result='grey'/>
	  <feComposite in='SourceGraphic' in2='grey' operator='atop'/>
	</filter>
</defs>
<g fill="none" color="#FFFFFF" stroke="black" stroke-width="1.00" stroke-linecap="butt" stroke-linejoin="miter">
</g>
<g fill="none" color="black" stroke="currentColor" stroke-width="1.00" stroke-linecap="butt" stroke-linejoin="miter">
	<path stroke='black'  d='M53.9,424.3 L62.9,424.3 M615.0,424.3 L606.0,424.3  '/>	<g transform="translate(45.6,428.2)" stroke="none" fill="black" font-family="Arial" font-size="12.00"  text-anchor="end">
		<text><tspan font-family="Arial" > 0</tspan></text>
	</g>
</g>
<g fill="none" color="black" stroke="currentColor" stroke-width="1.00" stroke-linecap="butt" stroke-linejoin="miter">
	<path stroke='black'  d='M53.9,382.2 L62.9,382.2 M615.0,382.2 L606.0,382.2  '/>	<g transform="translate(45.6,386.1)" stroke="none" fill="black" font-family="Arial" font-size="12.00"  text-anchor="end">
		<text><tspan font-family="Arial" > 50</tspan></text>
	</g>
</g>
<g fill="none" color="black" stroke="currentColor" stroke-width="1.00" stroke-linecap="butt" stroke-linejoin="miter">
	<path stroke='black'  d='M53.9,340.1 L62.9,340.1 M615.0,340.1 L606.0,340.1  '/>	<g transform="translate(45.6,344.0)" stroke="none" fill="black" font-family="Arial" font-size="12.00"  text-anchor="end">
		<text><tspan font-family="Arial" > 100</tspan></text>
	</g>
</g>
<g fill="none" color="black" stroke="currentColor" stroke-width="1.00" stroke-linecap="butt" stroke-linejoin="miter">
	<path stroke='black'  d='M53.9,298.0 L62.9,298.0 M615.0,298.0 L606.0,298.0  '/>	<g transform="translate(45.6,301.9)" stroke="none" fill="black" font-family="Arial" font-size="12.00"  text-anchor="end">
		<text><tspan font-family="Arial" > 150</tspan></text>
	</g>
</g>
<g fill="none" color="black" stroke="currentColor" stroke-width="1.00" stroke-linecap="butt" stroke-linejoin="miter">
	<path stroke='black'  d='M53.9,255.9 L62.9,255.9 M615.0,255.9 L606.0,255.9  '/>	<g transform="translate(45.6,259.8)" stroke="none" fill="black" font-family="Arial" font-size="12.00"  text-anchor="end">
		<text><tspan font-family="Arial" > 200</tspan></text>
	</g>
</g>
<g fill="none" color="black" stroke="currentColor" stroke-width="1.00" stroke-linecap="butt" stroke-linejoin="miter">
	<path stroke='black'  d='M53.9,213.8 L62.9,213.8 M615.0,213.8 L606.0,213.8  '/>	<g transform="translate(45.6,217.7)" stroke="none" fill="black" font-family="Arial" font-size="12.00"  text-anchor="end">
		<text><tspan font-family="Arial" > 250</tspan></text>
	</g>
</g>
<g fill="none" color="black" stroke="currentColor" stroke-width="1.00" stroke-linecap="butt" stroke-linejoin="miter">
	<path stroke='black'  d='M53.9,171.7 L62.9,171.7 M615.0,171.7 L606.0,171.7  '/>	<g transform="translate(45.6,175.6)" stroke="none" fill="black" font-family="Arial" font-size="12.00"  text-anchor="end">
		<text><tspan font-family="Arial" > 300</tspan></text>
	</g>
</g>
<g fill="none" color="black" stroke="currentColor" stroke-width="1.00" stroke-linecap="butt" stroke-linejoin="miter">
	<path stroke='black'  d='M53.9,129.6 L62.9,129.6 M615.0,129.6 L606.0,129.6  '/>	<g transform="translate(45.6,133.5)" stroke="none" fill="black" font-family="Arial" font-size="12.00"  text-anchor="end">
		<text><tspan font-family="Arial" > 350</tspan></text>
	</g>
</g>
<g fill="none" color="black" stroke="currentColor" stroke-width="1.00" stroke-linecap="butt" stroke-linejoin="miter">
	<path stroke='black'  d='M53.9,87.5 L62.9,87.5 M615.0,87.5 L606.0,87.5  '/>	<g transform="translate(45.6,91.4)" stroke="none" fill="black" font-family="Arial" font-size="12.00"  text-anchor="end">
		<text><tspan font-family="Arial" > 400</tspan></text>
	</g>
</g>
<g fill="none" color="black" stroke="currentColor" stroke-width="1.00" stroke-linecap="butt" stroke-linejoin="miter">
	<path stroke='black'  d='M53.9,45.4 L62.9,45.4 M615.0,45.4 L606.0,45.4  '/>	<g transform="translate(45.6,49.3)" stroke="none" fill="black" font-family="Arial" font-size="12.00"  text-anchor="end">
		<text><tspan font-family="Arial" > 450</tspan></text>
	</g>
</g>
<g fill="none" color="black" stroke="currentColor" stroke-width="1.00" stroke-linecap="butt" stroke-linejoin="miter">
	<path stroke='black'  d='M53.9,428.0 L53.9,419.0 M53.9,18.1 L53.9,27.1  '/>	<g transform="translate(53.9,449.9)" stroke="none" fill="black" font-family="Arial" font-size="12.00"  text-anchor="middle">
		<text><tspan font-family="Arial" > 0</tspan></text>
	</g>
</g>
<g fill="none" color="black" stroke="currentColor" stroke-width="1.00" stroke-linecap="butt" stroke-linejoin="miter">
	<path stroke='black'  d='M110.6,428.0 L110.6,419.0 M110.6,18.1 L110.6,27.1  '/>	<g transform="translate(110.6,449.9)" stroke="none" fill="black" font-family="Arial" font-size="12.00"  text-anchor="middle">
		<text><tspan font-family="Arial" > 10</tspan></text>
	</g>
</g>
<g fill="none" color="black" stroke="currentColor" stroke-width="1.00" stroke-linecap="butt" stroke-linejoin="miter">
	<path stroke='black'  d='M167.3,428.0 L167.3,419.0 M167.3,18.1 L167.3,27.1  '/>	<g transform="translate(167.3,449.9)" stroke="none" fill="black" font-family="Arial" font-size="12.00"  text-anchor="middle">
		<text><tspan font-family="Arial" > 20</tspan></text>
	</g>
</g>
<g fill="none" color="black" stroke="currentColor" stroke-width="1.00" stroke-linecap="butt" stroke-linejoin="miter">
	<path stroke='black'  d='M223.9,428.0 L223.9,419.0 M223.9,18.1 L223.9,27.1  '/>	<g transform="translate(223.9,449.9)" stroke="none" fill="black" font-family="Arial" font-size="12.00"  text-anchor="middle">
		<text><tspan font-family="Arial" > 30</tspan></text>
	</g>
</g>
<g fill="none" color="black" stroke="currentColor" stroke-width="1.00" stroke-linecap="butt" stroke-linejoin="miter">
	<path stroke='black'  d='M280.6,428.0 L280.6,419.0 M280.6,18.1 L280.6,27.1  '/>	<g transform="translate(280.6,449.9)" stroke="none" fill="black" font-family="Arial" font-size="12.00"  text-anchor="middle">
		<text><tspan font-family="Arial" > 40</tspan></text>
	</g>
</g>
<g fill="none" color="black" stroke="currentColor" stroke-width="1.00" stroke-linecap="butt" stroke-linejoin="miter">
	<path stroke='black'  d='M337.3,428.0 L337.3,419.0 M337.3,18.1 L337.3,27.1  '/>	<g transform="translate(337.3,449.9)" stroke="none" fill="black" font-family="Arial" font-size="12.00"  text-anchor="middle">
		<text><tspan font-family="Arial" > 50</tspan></text>
	</g>
</g>
<g fill="none" color="black" stroke="currentColor" stroke-width="1.00" stroke-linecap="butt" stroke-linejoin="miter">
	<path stroke='black'  d='M394.0,428.0 L394.0,419.0 M394.0,18.1 L394.0,27.1  '/>	<g transform="translate(394.0,449.9)" stroke="none" fill="black" font-family="Arial" font-size="12.00"  text-anchor="middle">
		<text><tspan font-family="Arial" > 60</tspan></text>
	</g>
</g>
<g fill="none" color="black" stroke="currentColor" stroke-width="1.00" stroke-linecap="butt" stroke-linejoin="miter">
	<path stroke='black'  d='M450.6,428.0 L450.6,419.0 M450.6,18.1 L450.6,27.1  '/>	<g transform="translate(450.6,449.9)" stroke="none" fill="black" font-family="Arial" font-size="12.00"  text-anchor="middle">
		<text><tspan font-family="Arial" > 70</tspan></text>
	</g>
</g>
<g fill="none" color="black" stroke="currentColor" stroke-width="1.00" stroke-linecap="butt" stroke-linejoin="miter">
	<path stroke='black'  d='M507.3,428.0 L507.3,419.0 M507.3,18.1 L507.3,27.1  '/>	<g transform="translate(507.3,449.9)" stroke="none" fill="black" font-family="Arial" font-size="12.00"  text-anchor="middle">
		<text><tspan font-family="Arial" > 80</tspan></text>
	</g>
</g>
<g fill="none" color="black" stroke="currentColor" stroke-width="1.00" stroke-linecap="butt" stroke-linejoin="miter">
	<path stroke='black'  d='M564.0,428.0 L564.0,419.0 M564.0,18.1 L564.0,27.1  '/>	<g transform="translate(564.0,449.9)" stroke="none" fill="black" font-family="Arial" font-size="12.00"  text-anchor="middle">
		<text><tspan font-family="Arial" > 90</tspan></text>
	</g>
</g>
<g fill="none" color="black" stroke="currentColor" stroke-width="1.00" stroke-linecap="butt" stroke-linejoin="miter">
</g>
<g fill="none" color="black" stroke="currentColor" stroke-width="1.00" stroke-linecap="butt" stroke-linejoin="miter">
	<path stroke='black'  d='M53.9,18.1 L53.9,428.0 L615.0,428.0 L615.0,18.1 L53.9,18.1 Z  '/></g>
<g fill="none" color="black" stroke="currentColor" stroke-width="1.00" stroke-linecap="butt" stroke-linejoin="miter">
</g>
	<g id="gnuplot_plot_1" ><title>pages+cached+noexternal+nofonts</title>
<g fill="none" color="black" stroke="currentColor" stroke-width="1.00" stroke-linecap="butt" stroke-linejoin="miter">
	<g transform="translate(433.7,467.9)" stroke="none" fill="black" font-family="Arial" font-size="12.00"  text-anchor="end">
		<text><tspan font-family="Arial" >pages+cached+noexternal+nofonts</tspan></text>
	</g>
</g>
<g fill="none" color="black" stroke="currentColor" stroke-width="1.00" stroke-linecap="butt" stroke-linejoin="miter">
	<path stroke='rgb(148,   0, 211)'  d='M442.0,464.0 L484.2,464.0 M53.9,419.3 L59.6,415.9 L65.2,416.7 L70.9,418.4 L76.6,418.4 L82.2,416.7
		L87.9,418.4 L93.6,162.4 L99.2,417.6 L104.9,38.6 L110.6,418.4 L116.2,417.6 L121.9,418.4 L127.6,417.6
		L133.2,418.4 L138.9,417.6 L144.6,417.6 L150.3,416.7 L155.9,417.6 L161.6,40.3 L167.3,417.6 L172.9,415.1
		L178.6,415.1 L184.3,160.7 L189.9,417.6 L195.6,418.4 L201.3,417.6 L206.9,418.4 L212.6,417.6 L218.3,418.4
		L223.9,38.6 L229.6,39.5 L235.3,418.4 L240.9,418.4 L246.6,39.5 L252.3,38.6 L257.9,417.6 L263.6,417.6
		L269.3,416.7 L274.9,416.7 L280.6,38.6 L286.3,417.6 L291.9,40.3 L297.6,417.6 L303.3,416.7 L308.9,419.3
		L314.6,417.6 L320.3,155.7 L325.9,418.4 L331.6,40.3 L337.3,39.5 L343.0,417.6 L348.6,417.6 L354.3,418.4
		L360.0,41.1 L365.6,162.4 L371.3,420.1 L377.0,40.3 L382.6,417.6 L388.3,418.4 L394.0,417.6 L399.6,416.7
		L405.3,416.7 L411.0,38.6 L416.6,418.4 L422.3,40.3 L428.0,40.3 L433.6,415.9 L439.3,37.8 L445.0,419.3
		L450.6,417.6 L456.3,417.6 L462.0,417.6 L467.6,418.4 L473.3,40.3 L479.0,416.7 L484.6,40.3 L490.3,418.4
		L496.0,418.4 L501.6,418.4 L507.3,416.7 L513.0,418.4 L518.6,417.6 L524.3,418.4 L530.0,415.9 L535.7,417.6
		L541.3,40.3 L547.0,417.6 L552.7,418.4 L558.3,39.5 L564.0,416.7 L569.7,416.7 L575.3,416.7 L581.0,416.7
		L586.7,158.2 L592.3,418.4 L598.0,417.6 L603.7,417.6 L609.3,417.6 L615.0,416.7  '/></g>
	</g>
	<g id="gnuplot_plot_2" ><title>pages+cached+noexternal+nosvg</title>
<g fill="none" color="black" stroke="currentColor" stroke-width="1.00" stroke-linecap="butt" stroke-linejoin="miter">
	<g transform="translate(433.7,485.9)" stroke="none" fill="black" font-family="Arial" font-size="12.00"  text-anchor="end">
		<text><tspan font-family="Arial" >pages+cached+noexternal+nosvg</tspan></text>
	</g>
</g>
<g fill="none" color="black" stroke="currentColor" stroke-width="1.00" stroke-linecap="butt" stroke-linejoin="miter">
	<path stroke='rgb(  0, 158, 115)'  d='M442.0,482.0 L484.2,482.0 M53.9,291.3 L59.6,291.3 L65.2,288.7 L70.9,292.1 L76.6,290.4 L82.2,291.3
		L87.9,287.9 L93.6,288.7 L99.2,290.4 L104.9,288.7 L110.6,289.6 L116.2,198.6 L121.9,26.0 L127.6,291.3
		L133.2,288.7 L138.9,288.7 L144.6,290.4 L150.3,290.4 L155.9,292.9 L161.6,32.7 L167.3,288.7 L172.9,289.6
		L178.6,290.4 L184.3,289.6 L189.9,290.4 L195.6,289.6 L201.3,288.7 L206.9,290.4 L212.6,290.4 L218.3,291.3
		L223.9,288.7 L229.6,289.6 L235.3,288.7 L240.9,290.4 L246.6,288.7 L252.3,28.5 L257.9,29.4 L263.6,288.7
		L269.3,289.6 L274.9,288.7 L280.6,288.7 L286.3,289.6 L291.9,292.1 L297.6,287.9 L303.3,288.7 L308.9,289.6
		L314.6,292.1 L320.3,289.6 L325.9,288.7 L331.6,287.9 L337.3,29.4 L343.0,288.7 L348.6,289.6 L354.3,290.4
		L360.0,288.7 L365.6,292.1 L371.3,290.4 L377.0,287.1 L382.6,288.7 L388.3,290.4 L394.0,286.2 L399.6,289.6
		L405.3,289.6 L411.0,290.4 L416.6,291.3 L422.3,290.4 L428.0,290.4 L433.6,26.8 L439.3,292.1 L445.0,290.4
		L450.6,290.4 L456.3,291.3 L462.0,290.4 L467.6,287.9 L473.3,289.6 L479.0,290.4 L484.6,293.8 L490.3,288.7
		L496.0,287.9 L501.6,290.4 L507.3,289.6 L513.0,290.4 L518.6,291.3 L524.3,290.4 L530.0,291.3 L535.7,289.6
		L541.3,288.7 L547.0,288.7 L552.7,288.7 L558.3,290.4 L564.0,292.9 L569.7,290.4 L575.3,288.7 L581.0,291.3
		L586.7,287.9 L592.3,289.6 L598.0,291.3 L603.7,288.7 L609.3,290.4 L615.0,288.7  '/></g>
	</g>
<g fill="none" color="#FFFFFF" stroke="rgb(  0, 158, 115)" stroke-width="2.00" stroke-linecap="butt" stroke-linejoin="miter">
</g>
<g fill="none" color="black" stroke="currentColor" stroke-width="2.00" stroke-linecap="butt" stroke-linejoin="miter">
</g>
<g fill="none" color="black" stroke="black" stroke-width="1.00" stroke-linecap="butt" stroke-linejoin="miter">
</g>
<g fill="none" color="black" stroke="currentColor" stroke-width="1.00" stroke-linecap="butt" stroke-linejoin="miter">
	<path stroke='black'  d='M53.9,18.1 L53.9,428.0 L615.0,428.0 L615.0,18.1 L53.9,18.1 Z  '/></g>
<g fill="none" color="black" stroke="currentColor" stroke-width="1.00" stroke-linecap="butt" stroke-linejoin="miter">
</g>
</g>
</svg>
